assets/align-vertical-bottom.svg

<svg xmlns="http://www.w3.org/2000/svg" fill="none" viewBox="0 0 12 17">
  <path fill="#2A2238" d="M3.5 14v.5h1V14h-1Zm1-13c0-.276142-.22386-.5-.5-.5s-.5.223858-.5.5h1Zm0 13V1h-1v13h1Z"/>
  <path stroke="#2A2238" stroke-linecap="round" d="M11 16H1"/>
  <path fill="#2A2238" d="M7.5 14v.5h1V14h-1Zm1-7c0-.27614-.22386-.5-.5-.5s-.5.22386-.5.5h1Zm0 7V7h-1v7h1Z"/>
</svg>

<svg width="12" height="17" viewBox="0 0 12 17" fill="none" xmlns="http://www.w3.org/2000/svg">
<path d="M3.5 14V14.5H4.5V14H3.5ZM4.5 1C4.5 0.723858 4.27614 0.5 4 0.5C3.72386 0.5 3.5 0.723858 3.5 1H4.5ZM4.5 14L4.5 1H3.5L3.5 14H4.5Z" fill="#2A2238"/>
<path d="M11 16L1 16" stroke="#2A2238" stroke-linecap="round"/>
<path d="M7.5 14V14.5H8.5V14H7.5ZM8.5 7C8.5 6.72386 8.27614 6.5 8 6.5C7.72386 6.5 7.5 6.72386 7.5 7H8.5ZM8.5 14V7H7.5V14H8.5Z" fill="#2A2238"/>
</svg>
